X:992
T:Skyline of Skye #2, The
C:Joe Buchanan's Scottish Tome - Page 578.2
I:578 2
Z:Carl Allison
R:Waltz
L:1/4
M:3/4
K:D
A, | D>(E F) | B (c B) | (A F E) | F2 (E/F/) | D2 (B,/D/) | B, (A, B,) | D3- | D2 A, |
D>E F | B (c B) | A (F E) | F2 (E/F/) | D2 (B,/D/) | B, (A, B,) | D3- | D2 F |
F B c | d B d | c (A F) | A2 D | D (G A) | B (G B) | A F D | E2 A, |
D>E F | B (c B) | A (F E) | F2 (E/F/) | D2 (B,/D/) | B, (A, B,) | D3- | D2 |]

